assets/icons/informations/info.svg

<svg viewBox="0 0 24 24" xmlns="http://www.w3.org/2000/svg">
<path d="M12 17C12.2833 17 12.521 16.904 12.713 16.712C12.9043 16.5207 13 16.2833 13 16V11.975C13 11.6917 12.9043 11.4583 12.713 11.275C12.521 11.0917 12.2833 11 12 11C11.7167 11 11.4793 11.0957 11.288 11.287C11.096 11.479 11 11.7167 11 12V16.025C11 16.3083 11.096 16.5417 11.288 16.725C11.4793 16.9083 11.7167 17 12 17ZM12 9C12.2833 9 12.521 8.904 12.713 8.712C12.9043 8.52067 13 8.28333 13 8C13 7.71667 12.9043 7.479 12.713 7.287C12.521 7.09567 12.2833 7 12 7C11.7167 7 11.4793 7.09567 11.288 7.287C11.096 7.479 11 7.71667 11 8C11 8.28333 11.096 8.52067 11.288 8.712C11.4793 8.904 11.7167 9 12 9ZM12 22C10.6167 22 9.31667 21.7373 8.1 21.212C6.88333 20.6873 5.825 19.975 4.925 19.075C4.025 18.175 3.31267 17.1167 2.788 15.9C2.26267 14.6833 2 13.3833 2 12C2 10.6167 2.26267 9.31667 2.788 8.1C3.31267 6.88333 4.025 5.825 4.925 4.925C5.825 4.025 6.88333 3.31233 8.1 2.787C9.31667 2.26233 10.6167 2 12 2C13.3833 2 14.6833 2.26233 15.9 2.787C17.1167 3.31233 18.175 4.025 19.075 4.925C19.975 5.825 20.6873 6.88333 21.212 8.1C21.7373 9.31667 22 10.6167 22 12C22 13.3833 21.7373 14.6833 21.212 15.9C20.6873 17.1167 19.975 18.175 19.075 19.075C18.175 19.975 17.1167 20.6873 15.9 21.212C14.6833 21.7373 13.3833 22 12 22Z" fill="inherit" />
</svg>

<svg viewBox="0 0 24 24" xmlns="http://www.w3.org/2000/svg"><path d="M12 17c.3 0 .5-.1.7-.3.2-.2.3-.4.3-.7v-4a1 1 0 0 0-.3-.7 1 1 0 0 0-.7-.3 1 1 0 0 0-.7.3 1 1 0 0 0-.3.7v4c0 .3.1.5.3.7.2.2.4.3.7.3Zm0-8c.3 0 .5-.1.7-.3.2-.2.3-.4.3-.7a1 1 0 0 0-.3-.7A1 1 0 0 0 12 7a1 1 0 0 0-.7.3 1 1 0 0 0-.3.7c0 .3.1.5.3.7.2.2.4.3.7.3Zm0 13a9.7 9.7 0 0 1-7-3A10 10 0 0 1 2.7 8.2 10 10 0 0 1 12 2a9.7 9.7 0 0 1 7 3 10 10 0 0 1 2.2 10.9A10 10 0 0 1 12 22Z" fill="inherit"/></svg>
